src/objects/household/1F9F4.svg

<svg id="emoji" viewBox="0 0 72 72" xmlns="http://www.w3.org/2000/svg">
  <g id="grid">
    <path fill="#b3b3b3" d="M68,4V68H4V4H68m4-4H0V72H72V0Z"/>
    <path fill="none" stroke="#00a5ff" stroke-miterlimit="10" stroke-width="0.1" d="M12.923,10.9583H59.0769A1.9231,1.9231,0,0,1,61,12.8814V59.0352a1.9231,1.9231,0,0,1-1.9231,1.9231H12.9231A1.9231,1.9231,0,0,1,11,59.0352V12.8813A1.923,1.923,0,0,1,12.923,10.9583Z"/>
    <rect x="16" y="4" rx="2.2537" ry="2.2537" width="40" height="64" fill="none" stroke="#00a5ff" stroke-miterlimit="10" stroke-width="0.1"/>
    <rect x="16" y="4" rx="2.2537" ry="2.2537" width="40" height="64" transform="translate(72) rotate(90)" fill="none" stroke="#00a5ff" stroke-miterlimit="10" stroke-width="0.1"/>
    <circle cx="36" cy="36" r="29" fill="none" stroke="#00a5ff" stroke-miterlimit="10" stroke-width="0.1"/>
  </g>
  <g id="color">
    <path fill="#61b2e4" d="M48.0312,34.43V53.1413a5.2419,5.2419,0,0,1-5.2493,5.24H29.905a5.24,5.24,0,0,1-5.24-5.24V34.43a9.5463,9.5463,0,0,1,8.7611-9.5137c.2509-.0186.5111-.0279.7712-.0279h4.3016A9.542,9.542,0,0,1,48.0312,34.43Z"/>
    <path fill="#92d3f5" d="M42.1781,34.43V53.1413a5.24,5.24,0,0,1-5.24,5.24H29.905a5.24,5.24,0,0,1-5.24-5.24V34.43a9.5463,9.5463,0,0,1,8.7611-9.5137A9.5383,9.5383,0,0,1,42.1781,34.43Z"/>
    <path fill="#ea5a47" d="M36.0746,17.7765h0a3.7,3.7,0,0,1,3.7,3.7v3.1971a0,0,0,0,1,0,0h-7.4a0,0,0,0,1,0,0V21.4765A3.7,3.7,0,0,1,36.0746,17.7765Z"/>
    <ellipse cx="36.3481" cy="41.6347" rx="6.8339" ry="10.5612" fill="#ea5a47"/>
  </g>
  <g id="line">
    <path d="M38.97,14.268H33.3872c-.1475-.1475,2.7839,4.4322,2.7916,4.42C36.1864,18.7,39.1179,14.1205,38.97,14.268Z"/>
    <path fill="none" stroke="#000" stroke-linecap="round" stroke-linejoin="round" stroke-width="2" d="M23.96,17.1731c.0775-.0278,5.1429-2.9513,5.1429-2.9513H42.18"/>
    <path fill="none" stroke="#000" stroke-linecap="round" stroke-linejoin="round" stroke-width="2" d="M34.9279,24.8908h2.8388A10.2649,10.2649,0,0,1,48.0316,35.1557V52.74a5.6461,5.6461,0,0,1-5.6461,5.6461H30.309A5.6461,5.6461,0,0,1,24.6629,52.74V35.1557A10.2649,10.2649,0,0,1,34.9279,24.8908Z"/>
    <path fill="none" stroke="#000" stroke-linecap="round" stroke-linejoin="round" stroke-width="2" d="M36.0746,17.7765h0a3.7,3.7,0,0,1,3.7,3.7v3.1971a0,0,0,0,1,0,0h-7.4a0,0,0,0,1,0,0V21.4765A3.7,3.7,0,0,1,36.0746,17.7765Z"/>
    <ellipse cx="36.3481" cy="41.6347" rx="6.8339" ry="10.5612" fill="none" stroke="#000" stroke-miterlimit="10" stroke-width="2"/>
  </g>
</svg>

<svg viewBox="0 0 72 72" xmlns="http://www.w3.org/2000/svg"><path fill="#b3b3b3" d="M68 4v64H4V4h64m4-4H0v72h72V0z"/><path fill="none" stroke="#00a5ff" stroke-miterlimit="10" stroke-width=".1" d="M12.923 10.958h46.154A1.923 1.923 0 0161 12.881v46.154a1.923 1.923 0 01-1.923 1.923H12.923A1.923 1.923 0 0111 59.035V12.881a1.923 1.923 0 011.923-1.923z"/><rect x="16" y="4" rx="2.254" ry="2.254" width="40" height="64" fill="none" stroke="#00a5ff" stroke-miterlimit="10" stroke-width=".1"/><rect x="16" y="4" rx="2.254" ry="2.254" width="40" height="64" transform="rotate(90 36 36)" fill="none" stroke="#00a5ff" stroke-miterlimit="10" stroke-width=".1"/><circle cx="36" cy="36" r="29" fill="none" stroke="#00a5ff" stroke-miterlimit="10" stroke-width=".1"/><g stroke-linecap="round" stroke-miterlimit="10" stroke-width="6" stroke="#fff" fill="none" stroke-linejoin="round"><path d="M38.97 14.268h-5.583c-.147-.147 2.784 4.432 2.792 4.42.007.012 2.939-4.567 2.791-4.42z"/><path d="M23.96 17.173c.077-.028 5.143-2.951 5.143-2.951H42.18M34.928 24.89h2.839a10.265 10.265 0 0110.265 10.266V52.74a5.646 5.646 0 01-5.646 5.646H30.309a5.646 5.646 0 01-5.646-5.646V35.156A10.265 10.265 0 0134.928 24.89zm1.147-7.114h0a3.7 3.7 0 013.7 3.7v3.198h0-7.4 0v-3.197a3.7 3.7 0 013.7-3.7z"/><ellipse cx="36.348" cy="41.635" rx="6.834" ry="10.561"/></g><path fill="#61b2e4" d="M48.031 34.43v18.711a5.242 5.242 0 01-5.25 5.24H29.906a5.24 5.24 0 01-5.24-5.24V34.43a9.546 9.546 0 018.761-9.514c.251-.018.511-.028.771-.028H38.5a9.542 9.542 0 019.532 9.542z"/><path fill="#92d3f5" d="M42.178 34.43v18.711a5.24 5.24 0 01-5.24 5.24h-7.033a5.24 5.24 0 01-5.24-5.24V34.43a9.546 9.546 0 018.761-9.514 9.538 9.538 0 018.752 9.514z"/><path fill="#ea5a47" d="M36.075 17.776a3.7 3.7 0 013.7 3.7v3.198h-7.4v-3.197a3.7 3.7 0 013.7-3.7z"/><ellipse cx="36.348" cy="41.635" rx="6.834" ry="10.561" fill="#ea5a47"/><g><path d="M38.97 14.268h-5.583c-.147-.147 2.784 4.432 2.792 4.42.007.012 2.939-4.567 2.791-4.42z"/><path fill="none" stroke="#000" stroke-linecap="round" stroke-linejoin="round" stroke-width="2" d="M23.96 17.173c.077-.028 5.143-2.951 5.143-2.951H42.18M34.928 24.89h2.839a10.265 10.265 0 0110.265 10.266V52.74a5.646 5.646 0 01-5.646 5.646H30.309a5.646 5.646 0 01-5.646-5.646V35.156A10.265 10.265 0 0134.928 24.89zm1.147-7.114h0a3.7 3.7 0 013.7 3.7v3.198h0-7.4 0v-3.197a3.7 3.7 0 013.7-3.7z"/><ellipse cx="36.348" cy="41.635" rx="6.834" ry="10.561" fill="none" stroke="#000" stroke-miterlimit="10" stroke-width="2"/></g></svg>
